PortableApps/LibreOfficePortable/App/libreoffice/help/media/icon-themes/cmd/sc_closepreview.svg

<svg viewBox="0 0 16 16" xmlns="http://www.w3.org/2000/svg"><path d="m8 1a7 7 0 0 0 -7 7 7 7 0 0 0 7 7 7 7 0 0 0 7-7 7 7 0 0 0 -7-7z" fill="#e68497"/><path d="m4.40625 4.0917969a.50005.50005 0 0 0 -.3496094.859375l3.1425782 3.1425781-3.1425782 3.142578a.50005.50005 0 1 0 .7070313.707031l3.1425781-3.1425778 3.142578 3.1425778a.50005.50005 0 1 0 .707031-.707031l-3.1425778-3.142578 3.1425778-3.1425781a.50005.50005 0 0 0 -.363281-.859375.50005.50005 0 0 0 -.34375.1523437l-3.142578 3.1425782-3.1425781-3.1425782a.50005.50005 0 0 0 -.3574219-.1523437z" fill="#fff"/></svg>

<svg viewBox="0 0 16 16" xmlns="http://www.w3.org/2000/svg">
  <path
     style="opacity:1;fill:#e68497;fill-opacity:1"
     d="M 8 1 A 7 7 0 0 0 1 8 A 7 7 0 0 0 8 15 A 7 7 0 0 0 15 8 A 7 7 0 0 0 8 1 z "
     id="path823" />
  <path
     style="color:#000000;font-style:normal;font-variant:normal;font-weight:normal;font-stretch:normal;font-size:medium;line-height:normal;font-family:sans-serif;font-variant-ligatures:normal;font-variant-position:normal;font-variant-caps:normal;font-variant-numeric:normal;font-variant-alternates:normal;font-feature-settings:normal;text-indent:0;text-align:start;text-decoration:none;text-decoration-line:none;text-decoration-style:solid;text-decoration-color:#000000;letter-spacing:normal;word-spacing:normal;text-transform:none;writing-mode:lr-tb;direction:ltr;text-orientation:mixed;dominant-baseline:auto;baseline-shift:baseline;text-anchor:start;white-space:normal;shape-padding:0;clip-rule:nonzero;display:inline;overflow:visible;visibility:visible;opacity:1;isolation:auto;mix-blend-mode:normal;color-interpolation:sRGB;color-interpolation-filters:linearRGB;solid-color:#000000;solid-opacity:1;vector-effect:none;fill:#ffffff;fill-opacity:1;fill-rule:nonzero;stroke:none;stroke-width:1;stroke-linecap:round;stroke-linejoin:round;stroke-miterlimit:4;stroke-dasharray:none;stroke-dashoffset:0;stroke-opacity:1;color-rendering:auto;image-rendering:auto;shape-rendering:auto;text-rendering:auto;enable-background:accumulate"
     d="M 4.40625 4.0917969 A 0.50005 0.50005 0 0 0 4.0566406 4.9511719 L 7.1992188 8.09375 L 4.0566406 11.236328 A 0.50005 0.50005 0 1 0 4.7636719 11.943359 L 7.90625 8.8007812 L 11.048828 11.943359 A 0.50005 0.50005 0 1 0 11.755859 11.236328 L 8.6132812 8.09375 L 11.755859 4.9511719 A 0.50005 0.50005 0 0 0 11.392578 4.0917969 A 0.50005 0.50005 0 0 0 11.048828 4.2441406 L 7.90625 7.3867188 L 4.7636719 4.2441406 A 0.50005 0.50005 0 0 0 4.40625 4.0917969 z "
     id="path2" />
</svg>
